packages/web-icons/svgs/religion_1.svg

<svg viewBox="0 0 36 48" xmlns="http://www.w3.org/2000/svg" class="ridi_icon"><path d="M6.9 29c-2.8-2.8-4.5-6.7-4.5-11 0-8.6 7-15.6 15.6-15.6s15.6 7 15.6 15.6c0 3.9-1.4 7.5-3.8 10.2.5.7 1 1.3 1.4 2C34.2 27 36 22.7 36 18 36 8 27.9 0 18 0S0 8.1 0 18.1c0 5.2 2.2 9.8 5.6 13.1.4-.8.8-1.5 1.3-2.2z"/><path d="M29.4 32c-.4-.7-.9-1.4-1.3-2-.7-1-1.5-1.9-2.3-2.7-.3-.3-.6-.5-.9-.8-.9-.8-1.9-1.4-2.9-1.8.8-.4 1.5-1 2.1-1.6 1.4-1.5 2.3-3.5 2.3-5.8 0-4.6-3.8-8.4-8.4-8.4-4.6 0-8.4 3.8-8.4 8.4 0 2.5 1.1 4.7 2.8 6.3.7.6 1.4 1.1 2.2 1.4-.5.3-1.1.6-1.6 1s-1 .8-1.5 1.3c-1 1-2 2.1-2.8 3.4-.2.3-.4.7-.7 1-.2.4-.4.7-.6 1-.1.2-.2.4-.4.7-1 2.2-1.6 4.5-1.6 6.6 0 .9.1 1.8.4 2.5 0 .3.1.5.2.7.3.6.6 1.1 1.1 1.6l.7.7c.7.6 1.6 1.1 2.7 1.4 1 .4 2.1.6 3.3.8 1.6.2 3.2.3 4.9.3 1.7 0 3.3-.1 4.9-.3 1.2-.2 2.3-.4 3.3-.8s1.9-.8 2.7-1.4c.2-.2.5-.4.7-.7.4-.4.8-1 1.1-1.6.1-.2.2-.4.3-.7.2-.7.4-1.6.4-2.5 0-2.1-.6-4.4-1.7-6.7-.5-.4-.7-.8-1-1.3z"/></svg>

<?xml version="1.0" encoding="UTF-8"?>
<svg width="36px" height="48px" viewBox="0 0 36 48" version="1.1" xmlns="http://www.w3.org/2000/svg">
  <!-- Generator: Sketch 41.2 (35397) - http://www.bohemiancoding.com/sketch -->
  <title>religion_1</title>
  <desc>Created with Sketch.</desc>
  <defs></defs>
  <g id="Page-1" stroke="none" stroke-width="1" fill="none" fill-rule="evenodd">
    <g id="religion_1" fill="#000000">
      <g id="레이어_1">
        <path d="M6.9,29 C4.1,26.2 2.4,22.3 2.4,18 C2.4,9.4 9.4,2.4 18,2.4 C26.6,2.4 33.6,9.4 33.6,18 C33.6,21.9 32.2,25.5 29.8,28.2 C30.3,28.9 30.8,29.5 31.2,30.2 C34.2,27 36,22.7 36,18 C36,8 27.9,0 18,0 C8.1,0 0,8.1 0,18.1 C0,23.3 2.2,27.9 5.6,31.2 C6,30.4 6.4,29.7 6.9,29 L6.9,29 Z" id="Shape"></path>
        <path d="M29.4,32 C29,31.3 28.5,30.6 28.1,30 C27.4,29 26.6,28.1 25.8,27.3 C25.5,27 25.2,26.8 24.9,26.5 C24,25.7 23,25.1 22,24.7 C22.8,24.3 23.5,23.7 24.1,23.1 C25.5,21.6 26.4,19.6 26.4,17.3 C26.4,12.7 22.6,8.9 18,8.9 C13.4,8.9 9.6,12.7 9.6,17.3 C9.6,19.8 10.7,22 12.4,23.6 C13.1,24.2 13.8,24.7 14.6,25 C14.1,25.3 13.5,25.6 13,26 C12.5,26.4 12,26.8 11.5,27.3 C10.5,28.3 9.5,29.4 8.7,30.7 C8.5,31 8.3,31.4 8,31.7 C7.8,32.1 7.6,32.4 7.4,32.7 C7.3,32.9 7.2,33.1 7,33.4 C6,35.6 5.4,37.9 5.4,40 L5.4,40 C5.4,40.9 5.5,41.8 5.8,42.5 C5.8,42.8 5.9,43 6,43.2 C6.3,43.8 6.6,44.3 7.1,44.8 C7.3,45 7.5,45.2 7.8,45.5 C8.5,46.1 9.4,46.6 10.5,46.9 C11.5,47.3 12.6,47.5 13.8,47.7 C15.4,47.9 17,48 18.7,48 C20.4,48 22,47.9 23.6,47.7 C24.8,47.5 25.9,47.3 26.9,46.9 C27.9,46.5 28.8,46.1 29.6,45.5 C29.8,45.3 30.1,45.1 30.3,44.8 C30.7,44.4 31.1,43.8 31.4,43.2 C31.5,43 31.6,42.8 31.7,42.5 C31.9,41.8 32.1,40.9 32.1,40 L32.1,40 C32.1,37.9 31.5,35.6 30.4,33.3 C29.9,32.9 29.7,32.5 29.4,32 L29.4,32 Z" id="Shape"></path>
      </g>
    </g>
  </g>
</svg>
